svgs/spotify.svg

<svg width="192" height="192" viewBox="0 0 192 192" fill="none" xmlns="http://www.w3.org/2000/svg"><path d="M24.419 57.512a6 6 0 1 0 3.162 11.576L24.42 57.512Zm5.706 34.312a6 6 0 0 0 3.421 11.502l-3.421-11.502Zm5.66 34.469a6 6 0 1 0 3.817 11.377l-3.817-11.377Zm105.947 19.99a6.001 6.001 0 0 0 5.69-10.566l-5.69 10.566Zm14.797-31.392a6 6 0 1 0 5.53-10.65l-5.53 10.65Zm14.758-31.384a6 6 0 0 0 5.426-10.704l-5.426 10.704ZM27.581 69.087C44.481 64.472 62.304 62 80.726 62V50c-19.5 0-38.385 2.615-56.307 7.512l3.162 11.576Zm5.965 34.239c14.92-4.438 30.759-6.828 47.18-6.828v-12c-17.59 0-34.582 2.56-50.602 7.326l3.422 11.502Zm6.056 34.344c12.886-4.324 26.718-6.674 41.124-6.674v-12c-15.718 0-30.839 2.565-44.941 7.297l3.817 11.377Zm41.124-6.674c22.134 0 42.92 5.547 61.006 15.287l5.69-10.566c-19.799-10.662-42.536-16.721-66.696-16.721v12Zm0-34.498c27.404 0 53.198 6.655 75.803 18.393l5.53-10.65c-24.28-12.607-51.967-19.743-81.333-19.743v12Zm0-34.498c32.665 0 63.454 7.767 90.561 21.507l5.426-10.704C147.956 58.228 115.311 50 80.726 50v12Z" fill="#000"/></svg>

<svg id="vector" xmlns="http://www.w3.org/2000/svg" width="192" height="192" viewBox="0 0 192 192"><path fill="#000000" d="M24.419,57.512C21.222,58.385 19.339,61.684 20.212,64.881C21.085,68.077 24.385,69.961 27.581,69.088L24.419,57.512ZM30.125,91.824C26.948,92.769 25.14,96.11 26.084,99.286C27.029,102.462 30.37,104.271 33.546,103.326L30.125,91.824ZM35.785,126.293C32.643,127.347 30.951,130.748 32.005,133.89C33.059,137.031 36.46,138.724 39.602,137.67L35.785,126.293ZM141.732,146.283C144.65,147.854 148.288,146.762 149.86,143.845C151.431,140.927 150.339,137.288 147.422,135.717L141.732,146.283ZM156.529,114.891C159.47,116.418 163.092,115.272 164.619,112.331C166.146,109.39 165,105.768 162.059,104.241L156.529,114.891ZM171.287,83.507C174.243,85.005 177.854,83.824 179.352,80.868C180.85,77.912 179.668,74.301 176.713,72.803L171.287,83.507ZM27.581,69.088C44.481,64.471 62.304,62 80.726,62V50C61.227,50 42.341,52.616 24.419,57.512L27.581,69.088ZM33.546,103.326C48.466,98.888 64.305,96.498 80.726,96.498V84.498C63.136,84.498 46.144,87.059 30.125,91.824L33.546,103.326ZM39.602,137.67C52.488,133.346 66.32,130.996 80.726,130.996V118.996C65.008,118.996 49.887,121.561 35.785,126.293L39.602,137.67ZM80.726,130.996C102.86,130.996 123.646,136.543 141.732,146.283L147.422,135.717C127.623,125.055 104.886,118.996 80.726,118.996V130.996ZM80.726,96.498C108.13,96.498 133.924,103.153 156.529,114.891L162.059,104.241C137.779,91.634 110.092,84.498 80.726,84.498V96.498ZM80.726,62C113.391,62 144.18,69.767 171.287,83.507L176.713,72.803C147.956,58.228 115.311,50 80.726,50V62Z" id="path_0"/></svg>
